markets/REN.svg

<svg width="42" height="42" viewBox="0 0 42 42" fill="none" xmlns="http://www.w3.org/2000/svg">
<circle cx="21" cy="21" r="21" fill="black"/>
<path d="M11.9716 13.0847L11.6724 12.5939L8 14.707V14.3868L20.7877 7L21.0633 7.17063L21.6434 7.49088L22.2183 7.83212L14.3827 12.3576L14.0847 11.8668L11.9716 13.0847ZM11.9716 17.7376L11.6724 17.2467L8 19.3598V19.0173L24.821 9.32706L25.1019 9.49769L25.6768 9.81662L26.2529 10.1579L18.395 14.686L18.1194 14.1938L11.9716 17.7376V17.7376ZM11.9716 20.0633L11.6724 19.5541L8 21.6856V21.3469L26.8291 10.4781L27.1047 10.6488L27.6849 10.9913L28.2598 11.3142L20.4018 15.8384L20.1262 15.3488L11.9716 20.0633V20.0633ZM11.9716 22.3707L11.6724 21.8798L8 23.9929V23.674L28.8359 11.6528L29.1116 11.8037L29.6891 12.1437L30.2666 12.4652L22.4756 16.9711L22.196 16.4776L11.9716 22.3707V22.3707ZM11.9716 24.6964L11.6724 24.2069L8 26.32V25.9997L30.8427 12.8091L31.1433 12.9758L31.6946 13.2987L32.2747 13.6399L24.4824 18.1457L24.2028 17.6326L11.9716 24.6964V24.6964ZM33.1462 14.1308L33.5741 14.3868V15.2202L24.4824 20.4492L24.2028 19.9583L11.9716 27.0235L11.6724 26.5326L8 28.6458V28.3268L32.8509 13.9602L33.1462 14.1308V14.1308ZM9.57894 30.0567L9.30331 29.8861L33.5741 15.8817V17.5236L24.4364 22.8183L24.1398 22.3077L11.9296 29.3729L11.6291 28.882L9.57894 30.0567ZM24.1398 24.6348L13.9758 30.5043L13.6792 30.0147L11.5871 31.2314L11.3114 31.0608L33.5741 18.2074V19.8533L24.4364 25.1479L24.1398 24.6348ZM13.5939 32.3838L13.3143 32.2131L33.5741 20.5148V22.1791L24.4364 27.4514L24.1398 26.9605L15.9826 31.6789L15.707 31.1671L13.5939 32.3838ZM15.6204 33.5348L15.3211 33.3878L33.5741 22.8406V24.5061L24.4364 29.7771L24.1398 29.2876L17.9908 32.8313L17.7138 32.3404L15.6204 33.5348ZM17.3292 34.5389L33.5741 25.1676V26.8319L24.4364 32.1081L24.1398 31.6133L19.9976 34.006L19.7219 33.4928L17.6285 34.7095L17.3292 34.5389V34.5389ZM19.6353 35.8619L19.3558 35.7136L33.5741 27.4934V29.1589L24.4364 34.4339L24.1398 33.9207L22.0241 35.1571L21.7287 34.6675L19.6353 35.8619V35.8619ZM24.2461 8.9845L16.3908 13.5126L16.1113 13.0218L11.9716 15.4105L11.6724 14.9209L8 17.0341V16.7125L22.7945 8.14975L23.0938 8.32038L23.6699 8.66425L24.2461 8.98319V8.9845Z" fill="white"/>
</svg>

<svg xmlns="http://www.w3.org/2000/svg" width="42" height="42" fill="none"><circle cx="21" cy="21" r="21" fill="#000"/><path fill="#fff" d="m11.972 13.085-.3-.491L8 14.707v-.32L20.788 7l.275.17.58.32.575.342-7.835 4.526-.298-.491-2.113 1.218Zm0 4.653-.3-.491L8 19.36v-.343l16.821-9.69.28.17.576.32.576.34-7.858 4.529-.276-.492-6.147 3.544Zm0 2.325-.3-.509L8 21.686v-.34l18.83-10.868.275.17.58.343.575.323-7.858 4.524-.276-.49-8.154 4.715Zm0 2.308-.3-.491L8 23.993v-.319l20.836-12.021.276.15.577.34.578.322-7.791 4.506-.28-.493-10.224 5.893Zm0 2.325-.3-.49L8 26.32V26l22.843-13.19.3.166.552.323.58.34-7.793 4.507-.28-.513-12.23 7.063Zm21.174-10.565.428.256v.833l-9.092 5.23-.28-.492-12.23 7.066-.3-.491L8 28.646v-.32L32.85 13.96l.296.17ZM9.58 30.057l-.276-.17 24.271-14.005v1.642l-9.138 5.294-.296-.51-12.21 7.065-.3-.491-2.051 1.175Zm14.56-5.422-10.163 5.87-.297-.49-2.092 1.216-.276-.17 22.263-12.854v1.646l-9.138 5.295-.296-.513Zm-10.545 7.749-.28-.17 20.26-11.7v1.665l-9.138 5.272-.296-.49-8.157 4.718-.276-.512-2.113 1.217Zm2.026 1.15-.299-.146L33.574 22.84v1.665l-9.138 5.271-.296-.49-6.15 3.544-.276-.49-2.094 1.194Zm1.71 1.005 16.244-9.371v1.664l-9.138 5.276-.296-.495-4.142 2.393-.276-.513-2.094 1.216-.299-.17Zm2.305 1.323-.28-.148 14.22-8.22v1.665l-9.139 5.275-.296-.513-2.116 1.236-.295-.49-2.094 1.195Zm4.611-26.878-7.855 4.529-.28-.491-4.14 2.389-.299-.49L8 17.034v-.322L22.794 8.15l.3.17.576.344.576.32Z"/></svg>
